v/0.4.11/design-resources/icons/wf_icons/highlighter.svg

<?xml version="1.0" encoding="utf-8"?>
<!-- Generated by IcoMoon.io -->
<!DOCTYPE svg PUBLIC "-//W3C//DTD SVG 1.1//EN" "http://www.w3.org/Graphics/SVG/1.1/DTD/svg11.dtd">
<svg version="1.1" xmlns="http://www.w3.org/2000/svg" xmlns:xlink="http://www.w3.org/1999/xlink" width="512" height="512" viewBox="0 0 512 512">
<g>
</g>
	<path d="M307.973 63.186l121.314 121.184-127.264 127.058-121.418-121.194 127.368-127.048zM307.973 48l-142.534 142.226 136.584 136.407 142.431-142.263-136.481-136.37zM175.974 368.584l-52.523-52.467 31.501-115.422 136.611 136.396-115.589 31.493zM112.897 326.596l-64.897 73.404h96.51l20.91-20.92-52.523-52.484zM48 416h416v48h-416v-48z" fill="#595959" />
</svg>

<svg xmlns="http://www.w3.org/2000/svg" width="512" height="512" viewBox="0 0 512 512"><path stroke="#449FDB" d="M0 0"/><path d="M307.973 63.186L429.287 184.37 302.023 311.428 180.605 190.234 307.973 63.186zm0-15.186L165.44 190.226l136.583 136.407 142.43-142.263L307.973 48zm-132 320.584l-52.522-52.467 31.503-115.422 136.61 136.396-115.588 31.495zm-63.076-41.988L48 400h96.51l20.91-20.92-52.523-52.484zM48 416h416v48H48v-48z" fill="#595959"/></svg>
